source/svgs/bowtie/uEA90-split.svg

<svg xmlns="http://www.w3.org/2000/svg" viewBox="0 0 448 448" enable-background="new 0 0 448 448"><path d="M160 64h32v352h-32v-160h-97.375l36.688 36.688-22.625 22.625-75.313-75.313 75.313-75.313 22.625 22.625-36.688 36.688h97.375v-160zm211.313 100.688l-22.625 22.625 36.687 36.687h-97.375v-160h-32v352h32v-160h97.375l-36.688 36.688 22.625 22.625 75.313-75.313-75.312-75.312z"/></svg>

<svg xmlns="http://www.w3.org/2000/svg" viewBox="0 0 448 448"><path d="M160 64h32v352h-32V256H62.625l36.688 36.688-22.625 22.625L1.375 240l75.313-75.313 22.625 22.625L62.625 224H160V64zm211.313 100.688l-22.625 22.625L385.375 224H288V64h-32v352h32V256h97.375l-36.688 36.688 22.625 22.625L446.625 240l-75.312-75.312z"/></svg>
